icons/4_Outdated/Okta v2.svg

<svg xmlns="http://www.w3.org/2000/svg" width="1024" height="1024" fill="none">
   <g clip-path="url(#a)">
      <path fill="#54688C" d="M512 1024c282.77 0 512-229.23 512-512S794.77 0 512 0 0 229.23 0 512s229.23 512 512 512Z"/>
      <path fill="#fff" d="M302.42 443.942a70.416 70.416 0 0 0-65.06 43.471 70.414 70.414 0 0 0 15.266 76.743 70.421 70.421 0 0 0 108.346-10.671 70.416 70.416 0 0 0 11.868-39.123 70.388 70.388 0 0 0-43.465-65.071 70.387 70.387 0 0 0-26.955-5.349Zm0 105.7a35.282 35.282 0 0 1-24.947-60.227 35.28 35.28 0 0 1 60.227 24.947 35.31 35.31 0 0 1-35.28 35.28Zm123.76-11.64a6.206 6.206 0 0 1 3.865-5.738 6.202 6.202 0 0 1 6.775 1.398c17.64 17.92 46.76 48.72 46.9 48.86a5.002 5.002 0 0 0 2.52 1.68 9.598 9.598 0 0 0 3.08.28h31.78c5.74 0 7.42-6.58 4.76-9.94l-52.64-53.9-2.8-2.8c-6-7.14-5.32-9.94 1.54-17.22l41.72-46.62c2.66-3.36 1-9.8-4.9-9.8h-28.84a8.615 8.615 0 0 0-2.8.28 5.278 5.278 0 0 0-2.8 1.68c-.14.14-23.24 25.06-37.52 40.32a6.313 6.313 0 0 1-6.941 1.555 6.315 6.315 0 0 1-3.979-5.895v-79.92c0-4.06-3.36-5.6-6-5.6h-23.54c-4.06 0-6 2.66-6 5v177.28c0 4.06 3.36 5.18 6.16 5.18H420c3.64 0 6-2.66 6-5.32v-40.76h.18Zm192.08 40-2.52-23.52a5.577 5.577 0 0 0-4.293-4.853 5.578 5.578 0 0 0-2.287-.047 35.907 35.907 0 0 1-5.46.42 35.29 35.29 0 0 1-35.14-33.32v-30.8a6.646 6.646 0 0 1 4.006-6.317 6.626 6.626 0 0 1 2.574-.543h31.5a5.882 5.882 0 0 0 5.6-6v-22.22c0-4.34-2.8-6.58-5.32-6.58h-31.78a6.55 6.55 0 0 1-6.72-6.3v-35.7a5.7 5.7 0 0 0-1.807-4.078 5.683 5.683 0 0 0-4.193-1.522H539c-2.94 0-5.74 1.82-5.74 5.46v114.66a70.349 70.349 0 0 0 70.44 68.46 68.794 68.794 0 0 0 9.38-.7 5.74 5.74 0 0 0 2.199-.651 5.732 5.732 0 0 0 2.816-3.502 5.714 5.714 0 0 0 .165-2.287v-.06Zm169.68-29.54c-19.88 0-23-7.14-23-33.88v-64.48c0-.802-.16-1.595-.471-2.334a6.012 6.012 0 0 0-3.344-3.256 5.986 5.986 0 0 0-2.345-.41H735.3a6.178 6.178 0 0 0-6.16 6v2.9a69.516 69.516 0 0 0-34.72-9.24 70.422 70.422 0 0 0-66.044 94.82 70.417 70.417 0 0 0 81.862 44.223 70.415 70.415 0 0 0 29.962-15.103c6.58 10.08 17.22 16.8 33.88 16.94 2.8 0 17.92.56 17.92-6.58v-25.06c0-2.1-1.68-4.48-4.06-4.48v-.06Zm-93.38 1.12a35.282 35.282 0 0 1-24.947-60.227 35.28 35.28 0 0 1 60.227 24.947 35.308 35.308 0 0 1-35.28 35.34v-.06Z"/>
   </g>
   <defs>
      <clipPath id="a">
         <path fill="#fff" d="M0 0h1024v1024H0z"/>
      </clipPath>
   </defs>
</svg>

<svg width="1024" height="1024" viewBox="0 0 1024 1024" fill="none" xmlns="http://www.w3.org/2000/svg">
<g clip-path="url(#clip0_3_608)">
<path d="M512 1024C794.77 1024 1024 794.77 1024 512C1024 229.23 794.77 0 512 0C229.23 0 0 229.23 0 512C0 794.77 229.23 1024 512 1024Z" fill="#54688C"/>
<path d="M302.42 443.942C288.492 443.942 274.877 448.072 263.297 455.81C251.716 463.548 242.69 474.546 237.36 487.413C232.031 500.281 230.636 514.44 233.353 528.1C236.07 541.76 242.777 554.308 252.626 564.156C262.474 574.005 275.022 580.711 288.682 583.429C302.342 586.146 316.501 584.751 329.369 579.421C342.236 574.091 353.234 565.066 360.972 553.485C368.71 541.905 372.84 528.29 372.84 514.362C372.845 505.113 371.027 495.953 367.49 487.407C363.953 478.861 358.766 471.096 352.226 464.556C345.686 458.015 337.921 452.829 329.375 449.291C320.829 445.754 311.669 443.937 302.42 443.942ZM302.42 549.642C295.442 549.642 288.621 547.573 282.82 543.696C277.018 539.819 272.496 534.309 269.826 527.863C267.155 521.416 266.457 514.323 267.818 507.479C269.179 500.635 272.539 494.349 277.473 489.415C282.407 484.481 288.694 481.121 295.537 479.76C302.381 478.398 309.475 479.097 315.921 481.767C322.368 484.438 327.878 488.959 331.754 494.761C335.631 500.563 337.7 507.384 337.7 514.362C337.692 523.716 333.973 532.685 327.358 539.3C320.743 545.914 311.774 549.634 302.42 549.642ZM426.18 538.002C426.182 536.77 426.551 535.566 427.239 534.545C427.927 533.523 428.904 532.729 430.045 532.264C431.185 531.798 432.439 531.683 433.645 531.932C434.852 532.181 435.957 532.783 436.82 533.662C454.46 551.582 483.58 582.382 483.72 582.522C484.366 583.329 485.247 583.916 486.24 584.202C487.245 584.461 488.285 584.556 489.32 584.482H521.1C526.84 584.482 528.52 577.902 525.86 574.542L473.22 520.642L470.42 517.842C464.42 510.702 465.1 507.902 471.96 500.622L513.68 454.002C516.34 450.642 514.68 444.202 508.78 444.202H479.94C478.998 444.141 478.052 444.236 477.14 444.482C476.053 444.732 475.072 445.32 474.34 446.162C474.2 446.302 451.1 471.222 436.82 486.482C435.954 487.409 434.828 488.053 433.59 488.331C432.352 488.608 431.059 488.506 429.879 488.037C428.7 487.568 427.69 486.755 426.98 485.704C426.27 484.652 425.894 483.411 425.9 482.142V402.222C425.9 398.162 422.54 396.622 419.9 396.622H396.36C392.3 396.622 390.36 399.282 390.36 401.622V578.902C390.36 582.962 393.72 584.082 396.52 584.082H420C423.64 584.082 426 581.422 426 578.762V538.002H426.18ZM618.26 578.002L615.74 554.482C615.659 553.715 615.421 552.974 615.039 552.304C614.658 551.634 614.142 551.051 613.523 550.59C612.905 550.13 612.198 549.803 611.447 549.629C610.696 549.456 609.918 549.439 609.16 549.582C607.353 549.861 605.528 550.001 603.7 550.002C594.698 549.978 586.046 546.514 579.513 540.32C572.981 534.126 569.063 525.67 568.56 516.682V485.882C568.531 484.996 568.679 484.114 568.995 483.287C569.312 482.46 569.791 481.704 570.404 481.065C571.018 480.426 571.752 479.916 572.566 479.565C573.379 479.214 574.254 479.029 575.14 479.022H606.64C608.171 478.949 609.614 478.281 610.66 477.16C611.706 476.04 612.273 474.555 612.24 473.022V450.802C612.24 446.462 609.44 444.222 606.92 444.222H575.14C573.416 444.268 571.744 443.632 570.486 442.453C569.227 441.273 568.485 439.645 568.42 437.922V402.222C568.409 401.455 568.243 400.699 567.933 399.998C567.622 399.297 567.173 398.667 566.613 398.144C566.053 397.621 565.392 397.216 564.672 396.955C563.951 396.693 563.185 396.58 562.42 396.622H539C536.06 396.622 533.26 398.442 533.26 402.082V516.742C533.753 535.086 541.394 552.511 554.554 565.301C567.713 578.09 585.349 585.232 603.7 585.202C606.839 585.183 609.973 584.949 613.08 584.502C613.849 584.435 614.597 584.214 615.279 583.851C615.96 583.487 616.561 582.99 617.045 582.388C617.529 581.786 617.887 581.093 618.095 580.349C618.304 579.606 618.36 578.828 618.26 578.062V578.002ZM787.94 548.462C768.06 548.462 764.94 541.322 764.94 514.582V450.102C764.94 449.3 764.78 448.507 764.469 447.768C764.157 447.03 763.701 446.361 763.127 445.802C762.552 445.242 761.872 444.804 761.125 444.512C760.379 444.22 759.581 444.08 758.78 444.102H735.3C733.695 444.106 732.155 444.735 731.005 445.855C729.856 446.974 729.187 448.498 729.14 450.102V453.002C718.576 446.933 706.603 443.746 694.42 443.762C683.072 443.764 671.893 446.509 661.834 451.762C651.775 457.015 643.135 464.622 636.649 473.933C630.163 483.245 626.024 493.987 624.583 505.243C623.143 516.499 624.444 527.937 628.376 538.582C632.308 549.227 638.754 558.764 647.166 566.381C655.577 573.998 665.705 579.469 676.687 582.329C687.669 585.189 699.179 585.352 710.238 582.805C721.296 580.259 731.575 575.077 740.2 567.702C746.78 577.782 757.42 584.502 774.08 584.642C776.88 584.642 792 585.202 792 578.062V553.002C792 550.902 790.32 548.522 787.94 548.522V548.462ZM694.56 549.582C687.582 549.582 680.761 547.513 674.96 543.636C669.158 539.759 664.636 534.249 661.966 527.803C659.295 521.356 658.597 514.263 659.958 507.419C661.319 500.575 664.679 494.289 669.613 489.355C674.547 484.421 680.834 481.061 687.677 479.7C694.521 478.338 701.615 479.037 708.061 481.707C714.508 484.378 720.018 488.899 723.894 494.701C727.771 500.503 729.84 507.324 729.84 514.302C729.844 518.939 728.935 523.531 727.164 527.817C725.393 532.102 722.795 535.997 719.519 539.279C716.243 542.56 712.353 545.164 708.07 546.943C703.788 548.721 699.197 549.638 694.56 549.642V549.582Z" fill="white"/>
</g>
<defs>
<clipPath id="clip0_3_608">
<rect width="1024" height="1024" fill="white"/>
</clipPath>
</defs>
</svg>
